libs/ui/packages/crypto-icons/src/svg/NIO.svg

<svg width="24" height="24" viewBox="0 0 24 24" fill="none">
<path d="M12 11.448H8.3835L12 5.25L15.6165 11.448H12ZM12.4913 18.75L14.3775 15.5182L16.1857 12.42L19.875 18.75H12.4913ZM9.6225 15.5182L11.5087 18.75H4.125L7.81425 12.42L9.62175 15.5182H9.6225Z" fill="#70C9C9"/>
</svg>

<svg width="24" height="24" viewBox="0 0 24 24" fill="none"><path fill="#70c9c9" d="M12 11.448H8.383L12 5.25l3.617 6.198zm.491 7.302 1.886-3.232 1.809-3.098 3.689 6.33zm-2.868-3.232 1.886 3.232H4.125l3.69-6.33z"/></svg>
